packages/core/src/svgs/tokens/mono/VOXEL.svg

<svg width="24" height="24" viewBox="0 0 24 24" fill="none" xmlns="http://www.w3.org/2000/svg">
<path d="M10.472 16.1944L11.0831 8.11108C9.24977 8.11108 6.822 9.79445 5.88867 10.6389V14.8055C6.49978 18.3332 10.222 21.0722 11.9997 21.9999V19.0944C11.4886 18.7943 10.472 16.95 10.472 16.1944Z" fill="white"/>
<path d="M13.5278 16.1944L12.9167 8.11108C14.7501 8.11108 17.1778 9.79445 18.1111 10.6389V14.8055C17.5 18.3332 13.7779 21.0722 12 21.9999V19.0944C12.5111 18.7943 13.5278 16.95 13.5278 16.1944Z" fill="white"/>
<path d="M12.0002 6.19998L8.66688 7.55554L8.11133 6.99999C8.76133 6.66665 10.2002 6.02221 10.7835 5.82777C11.3668 5.62777 11.4446 4.12777 11.4446 3.38889C11.2502 3.18889 11.1668 2.95556 11.1668 2.83333C11.1668 2.23889 11.7557 2 12.0002 2V6.19998Z" fill="white"/>
<path d="M12 6.19998L15.3333 7.55554L15.8889 6.99999C15.0176 6.56619 14.1259 6.17498 13.2167 5.82777C12.6334 5.62777 12.5556 4.12777 12.5556 3.38889C12.75 3.18889 12.8334 2.95556 12.8334 2.83333C12.8334 2.23889 12.2445 2 12 2V6.19998Z" fill="white"/>
</svg>

<svg xmlns="http://www.w3.org/2000/svg" width="24" height="24" fill="none" viewBox="0 0 24 24">
    <path fill="#fff" d="m10.472 16.194.611-8.083c-1.833 0-4.261 1.683-5.194 2.528v4.167c.61 3.527 4.333 6.266 6.11 7.194v-2.906c-.51-.3-1.527-2.144-1.527-2.9m3.056 0-.611-8.083c1.833 0 4.26 1.683 5.194 2.528v4.167C17.5 18.333 13.778 21.072 12 22v-2.906c.511-.3 1.528-2.144 1.528-2.9M12 6.2 8.667 7.556 8.11 7c.65-.333 2.09-.978 2.672-1.172.584-.2.662-1.7.662-2.44-.195-.2-.278-.432-.278-.555 0-.594.589-.833.833-.833zm0 0 3.333 1.356L15.89 7a30 30 0 0 0-2.672-1.172c-.584-.2-.661-1.7-.661-2.44.194-.2.277-.432.277-.555C12.833 2.24 12.245 2 12 2z"/>
</svg>
